X:1
T:Dark as as Dungeon
M:3/4
L:1/4
K:C
E/2-D/2| C CC/2-D/2| E G G| A cc/2-d/2| d2 c| e e3/2 d/2| c G G/2G/2|\
 A c3/2 c/2|A/2-G/2 G2-| G2 E/2D/2| C CC/2-D/2| E G G| A cc/2-d/2|\
 d2 c/2c/2| e e3/2 d/2| c G G| A c3/2 c/2|A/2-G/2 G2-| G2 G/2G/2| G d3/2 e/2|\
 d B G| c c3/2 A/2| G2 G/2G/2| F d3/2 e/2| d B G/2G/2| c c A| G2 E/2D/2|\
 C2 C/2D/2| E2 G/2G/2| A cc/2-d/2| d3-| d2| c/2c/2| e e3/2 d/2| c G G|\
 A c3/2 c/2|A/2-G/2 G2-| G2||
